#ifndef USERPREFS_HAS_SPLASH
#define icon_width 50
#define icon_height 28
static uint8_t icon_bits[] = {
0x00, 0x00, 0x00, 0x00, 0x00, 0x00, 0x00, 0x00, 0x00, 0x00, 0x00, 0x00, 0x00, 0x00, 0x00, 0x00, 
0x00, 0x00, 0x00, 0x00, 0x00, 0xc0, 0xe1, 0xfc, 0xe1, 0x31, 0x0c, 0x00, 0xc0, 0xe1, 0x0c, 0x38, 
0x32, 0x0c, 0x00, 0xc0, 0xf3, 0x0c, 0x38, 0x30, 0x0c, 0x00, 0xc0, 0xf3, 0x0c, 0x38, 0x30, 0x0c, 
0x00, 0xc0, 0xde, 0xfc, 0xf1, 0xf3, 0x0f, 0x00, 0xc0, 0xcc, 0x0c, 0x80, 0x33, 0x0c, 0x00, 0xc0, 
0xcc, 0x0c, 0x00, 0x37, 0x0c, 0x00, 0xc0, 0xc0, 0x1c, 0x1c, 0x33, 0x0c, 0x00, 0xc0, 0xc0, 0xfc, 
0xf9, 0x31, 0x0c, 0x00, 0x00, 0x00, 0x00, 0x00, 0x00, 0x00, 0x00, 0x00, 0x00, 0x00, 0x00, 0x00, 
0x00, 0x00, 0x7f, 0x3e, 0x7e, 0xc0, 0xe0, 0xf1, 0x01, 0x18, 0x63, 0x46, 0xc0, 0xc0, 0x38, 0x02, 
0x18, 0x63, 0x06, 0xc0, 0xc0, 0x18, 0x00, 0x18, 0x63, 0x3e, 0xc0, 0xc0, 0x18, 0x00, 0x18, 0x63, 
0x7c, 0xde, 0xc0, 0xd8, 0x03, 0x18, 0x63, 0x60, 0xc0, 0xc0, 0x18, 0x03, 0x18, 0x63, 0x62, 0xc0, 
0xc0, 0x38, 0x03, 0x18, 0x7e, 0x3e, 0xc0, 0xef, 0xe1, 0x01, 0x00, 0x00, 0x00, 0x00, 0x00, 0x00, 
0x00, 0x00, 0x00, 0x00, 0x00, 0x00, 0x00, 0x00, 0x00, 0x00, 0x00, 0x00, 0x00, 0x00, 0x00, 0x00, 
0x00, 0x00, 0x00, 0x00, 0x00, 0x00, 0x00, 0x00, 0x00, 0x00, 0x00, 0x00, 0x00, 0x00, 0x00, 0x00, 
0x00, 0x00, 0x00, 0x00, };
#endif
